round/svg/image_aspect_ratio.svg

<svg xmlns="http://www.w3.org/2000/svg" width="24" height="24"><path fill="none" d="M0 0h24v24H0z"/><g fill="currentColor"><path d="M16 10h-2v2h2v-2zm0 4h-2v2h2v-2zm-8-4H6v2h2v-2zm4 0h-2v2h2v-2zm8-6H4c-1.1 0-2 .9-2 2v12c0 1.1.9 2 2 2h16c1.1 0 2-.9 2-2V6c0-1.1-.9-2-2-2zm-1 14H5c-.55 0-1-.45-1-1V7c0-.55.45-1 1-1h14c.55 0 1 .45 1 1v10c0 .55-.45 1-1 1z"/></g></svg>

<?xml version="1.0" encoding="utf-8"?>
<!-- Generator: Adobe Illustrator 19.1.0, SVG Export Plug-In . SVG Version: 6.00 Build 0)  -->
<svg version="1.1" xmlns="http://www.w3.org/2000/svg" xmlns:xlink="http://www.w3.org/1999/xlink" x="0px" y="0px" width="24px"
	 height="24px" viewBox="0 0 24 24" enable-background="new 0 0 24 24" xml:space="preserve">
<g id="Bounding_Boxes">
	<g id="ui_x5F_spec_x5F_header_copy_3">
	</g>
	<rect fill="none" width="24" height="24"/>
</g>
<g id="Rounded" fill="currentColor">
	<g id="ui_x5F_spec_x5F_header_copy_7">
	</g>
	<path d="M16,10h-2v2h2V10z M16,14h-2v2h2V14z M8,10H6v2h2V10z M12,10h-2v2h2V10z M20,4H4C2.9,4,2,4.9,2,6v12c0,1.1,0.9,2,2,2h16
		c1.1,0,2-0.9,2-2V6C22,4.9,21.1,4,20,4z M19,18H5c-0.55,0-1-0.45-1-1V7c0-0.55,0.45-1,1-1h14c0.55,0,1,0.45,1,1v10
		C20,17.55,19.55,18,19,18z"/>
</g>
</svg>
